X: 10
T: The Banks Of Lough Gowna
R: jig
M: 6/8
L: 1/8
K: Bmin
|:~B3 BAF|~A3 AFA|~B3 BAB|d2e fef|
~B3 BAF|~A3 AFA|def afe| fdB ~B3:|
|:def ~a3|bab afe|def ~a3|baf edB|
def ~a3|bab afe|~f3 fef|dBA B3:|


Tune 775	Setting 13902

